src/lib/packages/icons/src/assets/line/file-list-star.svg

<svg width="24" height="24" viewBox="0 0 24 24" fill="none" xmlns="http://www.w3.org/2000/svg">
<path d="M7.75 12C7.75 12.414 7.414 12.75 7 12.75C6.586 12.75 6.25 12.414 6.25 12C6.25 11.586 6.586 11.25 7 11.25C7.414 11.25 7.75 11.586 7.75 12ZM7 15.25C6.586 15.25 6.25 15.586 6.25 16C6.25 16.414 6.586 16.75 7 16.75C7.414 16.75 7.75 16.414 7.75 16C7.75 15.586 7.414 15.25 7 15.25ZM9.5 11.25C9.086 11.25 8.75 11.586 8.75 12C8.75 12.414 9.086 12.75 9.5 12.75H14C14.414 12.75 14.75 12.414 14.75 12C14.75 11.586 14.414 11.25 14 11.25H9.5ZM11 15.25H9.5C9.086 15.25 8.75 15.586 8.75 16C8.75 16.414 9.086 16.75 9.5 16.75H11C11.414 16.75 11.75 16.414 11.75 16C11.75 15.586 11.414 15.25 11 15.25ZM21.3989 18.877L20.282 19.943L20.5349 21.392C20.6119 21.826 20.4371 22.259 20.0811 22.521C19.8751 22.673 19.6329 22.75 19.3879 22.75C19.2049 22.75 19.0211 22.707 18.8511 22.619L17.5 21.924L16.1499 22.618C15.7529 22.824 15.2799 22.785 14.9189 22.52C14.5629 22.257 14.3891 21.824 14.4651 21.39L14.718 19.942L13.6011 18.876C13.2861 18.574 13.1709 18.13 13.3049 17.716C13.4389 17.299 13.792 17.001 14.229 16.939L15.7881 16.717L16.457 15.389C16.656 14.994 17.057 14.749 17.501 14.749C17.945 14.749 18.3459 14.994 18.5449 15.389L19.2141 16.717L20.7729 16.939C21.2099 17.001 21.563 17.299 21.697 17.716C21.829 18.131 21.7149 18.576 21.3989 18.877ZM19.812 18.319L18.8181 18.177C18.4501 18.125 18.1299 17.897 17.9619 17.567L17.501 16.653L17.042 17.564C16.871 17.897 16.5521 18.126 16.1841 18.178L15.1899 18.32L15.8979 18.996C16.1709 19.258 16.2949 19.635 16.2319 20.005L16.061 20.98L16.978 20.509C17.142 20.425 17.322 20.383 17.501 20.383C17.68 20.383 17.8609 20.425 18.0249 20.51L18.9409 20.981L18.771 20.007C18.707 19.635 18.831 19.258 19.103 18.997L19.812 18.319ZM11.75 21C11.75 21.414 11.414 21.75 11 21.75H6C3.582 21.75 2.25 20.418 2.25 18V6C2.25 3.582 3.582 2.25 6 2.25H12C12.199 2.25 12.39 2.329 12.53 2.47L18.53 8.47C18.671 8.611 18.75 8.801 18.75 9V12C18.75 12.414 18.414 12.75 18 12.75C17.586 12.75 17.25 12.414 17.25 12V9.75H15C12.582 9.75 11.25 8.418 11.25 6V3.75H6C4.423 3.75 3.75 4.423 3.75 6V18C3.75 19.577 4.423 20.25 6 20.25H11C11.414 20.25 11.75 20.586 11.75 21ZM15 8.25H16.189L12.75 4.811V6C12.75 7.577 13.423 8.25 15 8.25Z" fill="currentColor"/>
</svg>

<svg xmlns="http://www.w3.org/2000/svg" width="24" height="24" fill="none"><path fill="currentColor" d="M7.75 12a.75.75 0 1 1-1.5 0 .75.75 0 0 1 1.5 0ZM7 15.25a.75.75 0 1 0 0 1.5.75.75 0 0 0 0-1.5Zm2.5-4a.75.75 0 0 0 0 1.5H14a.75.75 0 0 0 0-1.5H9.5Zm1.5 4H9.5a.75.75 0 0 0 0 1.5H11a.75.75 0 0 0 0-1.5Zm10.399 3.627-1.117 1.066.253 1.449c.077.434-.098.867-.454 1.129a1.164 1.164 0 0 1-1.23.098l-1.351-.695-1.35.694a1.165 1.165 0 0 1-1.685-1.228l.253-1.448-1.117-1.066a1.12 1.12 0 0 1-.296-1.16c.134-.417.487-.715.924-.777l1.56-.222.668-1.328c.199-.395.6-.64 1.044-.64.444 0 .845.245 1.044.64l.67 1.328 1.558.222a1.129 1.129 0 0 1 .626 1.938Zm-1.587-.558-.994-.142a1.14 1.14 0 0 1-.856-.61l-.461-.914-.459.911c-.171.333-.49.562-.858.614l-.994.142.708.676c.273.262.397.639.334 1.009l-.171.975.917-.471a1.148 1.148 0 0 1 1.047.001l.916.471-.17-.974c-.064-.372.06-.749.332-1.01l.709-.678ZM11.75 21a.75.75 0 0 1-.75.75H6c-2.418 0-3.75-1.332-3.75-3.75V6c0-2.418 1.332-3.75 3.75-3.75h6c.199 0 .39.079.53.22l6 6c.141.141.22.331.22.53v3a.75.75 0 0 1-1.5 0V9.75H15c-2.418 0-3.75-1.332-3.75-3.75V3.75H6c-1.577 0-2.25.673-2.25 2.25v12c0 1.577.673 2.25 2.25 2.25h5a.75.75 0 0 1 .75.75ZM15 8.25h1.189L12.75 4.811V6c0 1.577.673 2.25 2.25 2.25Z"/></svg>
